deploy/96b8a8c1d0765bdd682b.CUBE
#Created by: Affinity Photo (Serif Europe Ltd.)
TITLE "Exportierte LUT"
#LUT size
LUT_3D_SIZE 9
#data domain
DOMAIN_MIN 0.0 0.0 0.0
DOMAIN_MAX 1.0 1.0 1.0
#LUT data points
0.000000 0.000000 0.000000
0.129478 0.000000 0.000000
0.288227 0.000000 0.000000
0.478574 0.000000 0.000000
0.671797 0.000000 0.000000
0.837548 0.000000 0.000000
0.963908 0.000000 0.000000
1.000000 0.000000 0.000000
1.000000 0.000000 0.000000
0.000000 0.129478 0.000000
0.129478 0.129478 0.000000
0.288227 0.129478 0.000000
0.478574 0.129478 0.000000
0.671797 0.129478 0.000000
0.837548 0.129478 0.000000
0.963908 0.129478 0.000000
1.000000 0.129478 0.000000
1.000000 0.129478 0.000000
0.000000 0.288227 0.000000
0.129478 0.288227 0.000000
0.288227 0.288227 0.000000
0.478574 0.288227 0.000000
0.671797 0.288227 0.000000
0.837548 0.288227 0.000000
0.963908 0.288227 0.000000
1.000000 0.288227 0.000000
1.000000 0.288227 0.000000
0.000000 0.478574 0.000000
0.129478 0.478574 0.000000
0.288227 0.478574 0.000000
0.478574 0.478574 0.000000
0.671797 0.478574 0.000000
0.837548 0.478574 0.000000
0.963908 0.478574 0.000000
1.000000 0.478574 0.000000
1.000000 0.478574 0.000000
0.000000 0.671797 0.000000
0.129478 0.671797 0.000000
0.288227 0.671797 0.000000
0.478574 0.671797 0.000000
0.671797 0.671797 0.000000
0.837548 0.671797 0.000000
0.963908 0.671797 0.000000
1.000000 0.671797 0.000000
1.000000 0.671797 0.000000
0.000000 0.837548 0.000000
0.129478 0.837548 0.000000
0.288227 0.837548 0.000000
0.478574 0.837548 0.000000
0.671797 0.837548 0.000000
0.837548 0.837548 0.000000
0.963908 0.837548 0.000000
1.000000 0.837548 0.000000
1.000000 0.837548 0.000000
0.000000 0.963908 0.000000
0.129478 0.963908 0.000000
0.288227 0.963908 0.000000
0.478574 0.963908 0.000000
0.671797 0.963908 0.000000
0.837548 0.963908 0.000000
0.963908 0.963908 0.000000
1.000000 0.963908 0.000000
1.000000 0.963908 0.000000
0.000000 1.000000 0.000000
0.129478 1.000000 0.000000
0.288227 1.000000 0.000000
0.478574 1.000000 0.000000
0.671797 1.000000 0.000000
0.837548 1.000000 0.000000
0.963908 1.000000 0.000000
1.000000 1.000000 0.000000
1.000000 1.000000 0.000000
0.000000 1.000000 0.000000
0.129478 1.000000 0.000000
0.288227 1.000000 0.000000
0.478574 1.000000 0.000000
0.671797 1.000000 0.000000
0.837548 1.000000 0.000000
0.963908 1.000000 0.000000
1.000000 1.000000 0.000000
1.000000 1.000000 0.000000
0.000000 0.000000 0.129478
0.129478 0.000000 0.129478
0.288227 0.000000 0.129478
0.478574 0.000000 0.129478
0.671797 0.000000 0.129478
0.837548 0.000000 0.129478
0.963908 0.000000 0.129478
1.000000 0.000000 0.129477
1.000000 0.000000 0.129477
0.000000 0.129478 0.129478
0.129478 0.129478 0.129478
0.340281 0.090911 0.090911
0.590043 0.054089 0.054090
0.816001 0.018320 0.018320
0.963908 0.000000 0.000000
1.000000 0.086719 0.086719
1.000000 0.129478 0.129478
1.000000 0.129478 0.129478
0.000000 0.288227 0.129478
0.090911 0.340281 0.090911
0.340281 0.340281 0.090911
0.590043 0.288227 0.054089
0.816001 0.238867 0.018320
0.963908 0.203644 0.000000
1.000000 0.254957 0.086719
1.000000 0.288227 0.129478
1.000000 0.288227 0.129478
0.000000 0.478574 0.129478
0.054089 0.590043 0.054089
0.288227 0.590043 0.054089
0.590043 0.590043 0.054089
0.816001 0.534542 0.018320
0.963908 0.478574 0.000000
1.000000 0.466135 0.086719
1.000000 0.478574 0.129478
1.000000 0.478574 0.129478
0.000000 0.671797 0.129478
0.018320 0.816001 0.018320
0.238867 0.816001 0.018320
0.534542 0.816001 0.018320
0.816001 0.816001 0.018320
0.963908 0.759974 0.000000
1.000000 0.683406 0.086719
1.000000 0.671797 0.129478
1.000000 0.671797 0.129478
0.000000 0.837548 0.129478
0.000000 0.963908 0.000000
0.203644 0.963908 0.000000
0.478574 0.963908 0.000000
0.759974 0.963908 0.000000
0.963908 0.963908 0.000000
1.000000 0.863919 0.086719
1.000000 0.837548 0.129478
1.000000 0.837548 0.129478
0.000000 0.963908 0.129478
0.086719 1.000000 0.086719
0.254957 1.000000 0.086719
0.466135 1.000000 0.086719
0.683405 1.000000 0.086719
0.863919 1.000000 0.086719
1.000000 1.000000 0.086719
1.000000 0.963908 0.129478
1.000000 0.963908 0.129478
0.000000 1.000000 0.129478
0.129478 1.000000 0.129478
0.288227 1.000000 0.129478
0.478574 1.000000 0.129478
0.671797 1.000000 0.129478
0.837548 1.000000 0.129478
0.963908 1.000000 0.129478
1.000000 1.000000 0.129478
1.000000 1.000000 0.129478
0.000000 1.000000 0.129478
0.129478 1.000000 0.129478
0.288227 1.000000 0.129478
0.478574 1.000000 0.129478
0.671797 1.000000 0.129478
0.837548 1.000000 0.129478
0.963908 1.000000 0.129478
1.000000 1.000000 0.129478
1.000000 1.000000 0.129478
0.000000 0.000000 0.288227
0.129478 0.000000 0.288227
0.288227 0.000000 0.288227
0.478574 0.000000 0.288227
0.671797 0.000000 0.288227
0.837548 0.000000 0.288227
0.963908 0.000000 0.288228
1.000000 0.000000 0.288228
1.000000 0.000000 0.288228
0.000000 0.129478 0.288227
0.090911 0.090911 0.340281
0.340281 0.090911 0.340281
0.590043 0.054089 0.288227
0.816001 0.018320 0.238868
0.963908 0.000000 0.203644
1.000000 0.086719 0.254957
1.000000 0.129478 0.288228
1.000000 0.129478 0.288228
0.000000 0.288227 0.288227
0.090911 0.340281 0.340281
0.288227 0.288227 0.288227
0.534542 0.238867 0.238867
0.771325 0.192881 0.192881
0.946814 0.150342 0.150342
1.000000 0.233544 0.233545
1.000000 0.288227 0.288228
1.000000 0.288227 0.288228
0.000000 0.478574 0.288227
0.054089 0.590043 0.288227
0.238867 0.534542 0.238867
0.534542 0.534542 0.238867
0.771325 0.478574 0.192881
0.946814 0.422839 0.150342
1.000000 0.447516 0.233544
1.000000 0.478574 0.288227
1.000000 0.478574 0.288227
0.000000 0.671797 0.288227
0.018320 0.816001 0.238867
0.192881 0.771325 0.192881
0.478574 0.771325 0.192881
0.771325 0.771325 0.192881
0.946814 0.723025 0.150342
1.000000 0.671797 0.233544
1.000000 0.671797 0.288227
1.000000 0.671797 0.288227
0.000000 0.837548 0.288227
0.000000 0.963908 0.203644
0.150342 0.946814 0.150342
0.422838 0.946814 0.150342
0.723025 0.946814 0.150342
0.946814 0.946814 0.150342
1.000000 0.859625 0.233544
1.000000 0.837548 0.288227
1.000000 0.837548 0.288227
0.000000 0.963908 0.288227
0.086719 1.000000 0.254957
0.233544 1.000000 0.233544
0.447516 1.000000 0.233544
0.671797 1.000000 0.233544
0.859625 1.000000 0.233544
1.000000 1.000000 0.233544
1.000000 0.963908 0.288227
1.000000 0.963908 0.288227
0.000000 1.000000 0.288227
0.129478 1.000000 0.288227
0.288227 1.000000 0.288227
0.478574 1.000000 0.288227
0.671797 1.000000 0.288227
0.837548 1.000000 0.288227
0.963908 1.000000 0.288227
1.000000 1.000000 0.288227
1.000000 1.000000 0.288227
0.000000 1.000000 0.288227
0.129478 1.000000 0.288227
0.288227 1.000000 0.288227
0.478574 1.000000 0.288227
0.671797 1.000000 0.288227
0.837548 1.000000 0.288227
0.963908 1.000000 0.288227
1.000000 1.000000 0.288227
1.000000 1.000000 0.288227
0.000000 0.000000 0.478574
0.129478 0.000000 0.478574
0.288228 0.000000 0.478574
0.478574 0.000000 0.478574
0.671797 0.000000 0.478574
0.837548 0.000000 0.478574
0.963908 0.000000 0.478574
1.000000 0.000000 0.478574
1.000000 0.000000 0.478574
0.000000 0.129478 0.478574
0.054089 0.054089 0.590043
0.288228 0.054089 0.590043
0.590043 0.054089 0.590043
0.816001 0.018320 0.534542
0.963908 0.000000 0.478574
1.000000 0.086719 0.466135
1.000000 0.129478 0.478574
1.000000 0.129478 0.478574
0.000000 0.288227 0.478574
0.054089 0.288228 0.590043
0.238867 0.238867 0.534542
0.534542 0.238867 0.534542
0.771325 0.192881 0.478574
0.946814 0.150342 0.422839
1.000000 0.233544 0.447516
1.000000 0.288227 0.478575
1.000000 0.288227 0.478575
0.000000 0.478574 0.478574
0.054089 0.590043 0.590043
0.238867 0.534542 0.534542
0.478574 0.478574 0.478574
0.723025 0.422839 0.422839
0.912709 0.368035 0.368035
1.000000 0.416650 0.416650
1.000000 0.478574 0.478574
1.000000 0.478574 0.478574
0.000000 0.671797 0.478574
0.018320 0.816001 0.534542
0.192881 0.771325 0.478574
0.422839 0.723025 0.422839
0.723025 0.723025 0.422839
0.912709 0.671797 0.368035
1.000000 0.652208 0.416650
1.000000 0.671797 0.478574
1.000000 0.671797 0.478574
0.000000 0.837548 0.478574
0.000000 0.963908 0.478574
0.150342 0.946814 0.422839
0.368035 0.912709 0.368035
0.671797 0.912709 0.368035
0.912709 0.912709 0.368035
1.000000 0.852382 0.416650
1.000000 0.837548 0.478574
1.000000 0.837548 0.478574
0.000000 0.963908 0.478574
0.086719 1.000000 0.466135
0.233544 1.000000 0.447516
0.416650 1.000000 0.416650
0.652208 1.000000 0.416650
0.852382 1.000000 0.416650
1.000000 1.000000 0.416650
1.000000 0.963908 0.478574
1.000000 0.963908 0.478574
0.000000 1.000000 0.478574
0.129478 1.000000 0.478574
0.288227 1.000000 0.478574
0.478574 1.000000 0.478574
0.671797 1.000000 0.478574
0.837548 1.000000 0.478574
0.963908 1.000000 0.478574
1.000000 1.000000 0.478574
1.000000 1.000000 0.478574
0.000000 1.000000 0.478574
0.129478 1.000000 0.478574
0.288227 1.000000 0.478574
0.478574 1.000000 0.478574
0.671797 1.000000 0.478574
0.837548 1.000000 0.478574
0.963908 1.000000 0.478574
1.000000 1.000000 0.478574
1.000000 1.000000 0.478574
0.000000 0.000000 0.671797
0.129477 0.000000 0.671797
0.288228 0.000000 0.671797
0.478574 0.000000 0.671797
0.671797 0.000000 0.671797
0.837548 0.000000 0.671797
0.963908 0.000000 0.671797
1.000000 0.000000 0.671797
1.000000 0.000000 0.671797
0.000000 0.129478 0.671797
0.018320 0.018320 0.816001
0.238867 0.018320 0.816001
0.534542 0.018320 0.816001
0.816001 0.018320 0.816001
0.963908 0.000000 0.759974
1.000000 0.086719 0.683406
1.000000 0.129478 0.671797
1.000000 0.129478 0.671797
0.000000 0.288228 0.671797
0.018320 0.238867 0.816001
0.192881 0.192881 0.771325
0.478574 0.192881 0.771325
0.771325 0.192881 0.771325
0.946814 0.150342 0.723025
1.000000 0.233544 0.671797
1.000000 0.288227 0.671797
1.000000 0.288227 0.671797
0.000000 0.478574 0.671797
0.018320 0.534542 0.816001
0.192881 0.478574 0.771325
0.422839 0.422839 0.723025
0.723025 0.422839 0.723025
0.912709 0.368035 0.671797
1.000000 0.416650 0.652208
1.000000 0.478574 0.671797
1.000000 0.478574 0.671797
0.000000 0.671797 0.671797
0.018320 0.816001 0.816001
0.192881 0.771325 0.771325
0.422839 0.723025 0.723025
0.671797 0.671797 0.671797
0.876548 0.618341 0.618341
1.000000 0.612254 0.612254
1.000000 0.671797 0.671797
1.000000 0.671797 0.671797
0.000000 0.837548 0.671797
0.000000 0.963908 0.759974
0.150342 0.946814 0.723025
0.368035 0.912709 0.671797
0.618341 0.876548 0.618341
0.876548 0.876548 0.618341
1.000000 0.837548 0.612254
1.000000 0.837548 0.671797
1.000000 0.837548 0.671797
0.000000 0.963908 0.671796
0.086719 1.000000 0.683406
0.233544 1.000000 0.671797
0.416650 1.000000 0.652208
0.612254 1.000000 0.612254
0.837548 1.000000 0.612254
1.000000 1.000000 0.612254
1.000000 0.963908 0.671797
1.000000 0.963908 0.671797
0.000000 1.000000 0.671797
0.129478 1.000000 0.671797
0.288227 1.000000 0.671797
0.478574 1.000000 0.671797
0.671797 1.000000 0.671797
0.837548 1.000000 0.671797
0.963908 1.000000 0.671797
1.000000 1.000000 0.671797
1.000000 1.000000 0.671797
0.000000 1.000000 0.671797
0.129478 1.000000 0.671797
0.288227 1.000000 0.671797
0.478574 1.000000 0.671797
0.671797 1.000000 0.671797
0.837548 1.000000 0.671797
0.963908 1.000000 0.671797
1.000000 1.000000 0.671797
1.000000 1.000000 0.671797
0.000000 0.000000 0.837548
0.129477 0.000000 0.837548
0.288228 0.000000 0.837548
0.478574 0.000000 0.837548
0.671797 0.000000 0.837548
0.837548 0.000000 0.837548
0.963908 0.000000 0.837548
1.000000 0.000000 0.837548
1.000000 0.000000 0.837548
0.000000 0.129478 0.837548
0.000000 0.000000 0.963908
0.203643 0.000000 0.963908
0.478574 0.000000 0.963908
0.759974 0.000000 0.963908
0.963908 0.000000 0.963908
1.000000 0.086719 0.863919
1.000000 0.129478 0.837547
1.000000 0.129478 0.837547
0.000000 0.288227 0.837548
0.000000 0.203644 0.963908
0.150342 0.150342 0.946814
0.422839 0.150342 0.946814
0.723025 0.150342 0.946814
0.946814 0.150342 0.946814
1.000000 0.233544 0.859626
1.000000 0.288227 0.837548
1.000000 0.288227 0.837548
0.000000 0.478574 0.837548
0.000000 0.478574 0.963908
0.150342 0.422839 0.946814
0.368035 0.368035 0.912709
0.671797 0.368035 0.912709
0.912709 0.368035 0.912709
1.000000 0.416650 0.852382
1.000000 0.478574 0.837548
1.000000 0.478574 0.837548
0.000000 0.671797 0.837548
0.000000 0.759974 0.963908
0.150342 0.723025 0.946814
0.368035 0.671797 0.912709
0.618341 0.618341 0.876548
0.876547 0.618341 0.876548
1.000000 0.612254 0.837548
1.000000 0.671797 0.837548
1.000000 0.671797 0.837548
0.000000 0.837548 0.837548
0.000000 0.963908 0.963908
0.150342 0.946814 0.946814
0.368035 0.912709 0.912709
0.618341 0.876548 0.876548
0.837548 0.837548 0.837548
0.996387 0.794933 0.794933
1.000000 0.837548 0.837548
1.000000 0.837548 0.837548
0.000000 0.963908 0.837548
0.086719 1.000000 0.863919
0.233544 1.000000 0.859625
0.416650 1.000000 0.852382
0.612254 1.000000 0.837548
0.794933 0.996387 0.794933
0.996387 0.996387 0.794933
1.000000 0.963908 0.837548
1.000000 0.963908 0.837548
0.000000 1.000000 0.837548
0.129478 1.000000 0.837548
0.288227 1.000000 0.837547
0.478574 1.000000 0.837548
0.671797 1.000000 0.837548
0.837548 1.000000 0.837548
0.963908 1.000000 0.837548
1.000000 1.000000 0.837548
1.000000 1.000000 0.837548
0.000000 1.000000 0.837548
0.129478 1.000000 0.837548
0.288227 1.000000 0.837547
0.478574 1.000000 0.837548
0.671797 1.000000 0.837548
0.837548 1.000000 0.837548
0.963908 1.000000 0.837548
1.000000 1.000000 0.837548
1.000000 1.000000 0.837548
0.000000 0.000000 0.963908
0.129478 0.000000 0.963908
0.288228 0.000000 0.963908
0.478574 0.000000 0.963908
0.671797 0.000000 0.963908
0.837548 0.000000 0.963908
0.963908 0.000000 0.963908
1.000000 0.000000 0.963908
1.000000 0.000000 0.963908
0.000000 0.129478 0.963908
0.086719 0.086719 1.000000
0.254956 0.086719 1.000000
0.466136 0.086719 1.000000
0.683406 0.086719 1.000000
0.863919 0.086719 1.000000
1.000000 0.086719 1.000000
1.000000 0.129478 0.963908
1.000000 0.129478 0.963908
0.000000 0.288228 0.963908
0.086719 0.254957 1.000000
0.233544 0.233544 1.000000
0.447516 0.233544 1.000000
0.671797 0.233544 1.000000
0.859625 0.233544 1.000000
1.000000 0.233544 1.000000
1.000000 0.288227 0.963908
1.000000 0.288227 0.963908
0.000000 0.478574 0.963908
0.086719 0.466135 1.000000
0.233544 0.447516 1.000000
0.416650 0.416650 1.000000
0.652208 0.416650 1.000000
0.852382 0.416650 1.000000
1.000000 0.416650 1.000000
1.000000 0.478574 0.963908
1.000000 0.478574 0.963908
0.000000 0.671797 0.963908
0.086719 0.683406 1.000000
0.233544 0.671797 1.000000
0.416650 0.652208 1.000000
0.612254 0.612254 1.000000
0.837548 0.612254 1.000000
1.000000 0.612254 1.000000
1.000000 0.671797 0.963908
1.000000 0.671797 0.963908
0.000000 0.837548 0.963908
0.086719 0.863919 1.000000
0.233544 0.859625 1.000000
0.416650 0.852382 1.000000
0.612254 0.837548 1.000000
0.794933 0.794933 0.996387
0.996387 0.794933 0.996387
1.000000 0.837548 0.963908
1.000000 0.837548 0.963908
0.000000 0.963908 0.963908
0.086719 1.000000 1.000000
0.233544 1.000000 1.000000
0.416650 1.000000 1.000000
0.612254 1.000000 1.000000
0.794933 0.996387 0.996387
0.963908 0.963908 0.963908
1.000000 0.963908 0.963908
1.000000 0.963908 0.963908
0.000000 1.000000 0.963908
0.129478 1.000000 0.963908
0.288227 1.000000 0.963908
0.478574 1.000000 0.963908
0.671797 1.000000 0.963908
0.837548 1.000000 0.963908
0.963908 1.000000 0.963908
1.000000 1.000000 0.963908
1.000000 1.000000 0.963908
0.000000 1.000000 0.963908
0.129478 1.000000 0.963908
0.288227 1.000000 0.963908
0.478574 1.000000 0.963908
0.671797 1.000000 0.963908
0.837548 1.000000 0.963908
0.963908 1.000000 0.963908
1.000000 1.000000 0.963908
1.000000 1.000000 0.963908
0.000000 0.000000 1.000000
0.129478 0.000000 1.000000
0.288227 0.000000 1.000000
0.478574 0.000000 1.000000
0.671797 0.000000 1.000000
0.837548 0.000000 1.000000
0.963908 0.000000 1.000000
1.000000 0.000000 1.000000
1.000000 0.000000 1.000000
0.000000 0.129478 1.000000
0.129478 0.129478 1.000000
0.288228 0.129478 1.000000
0.478574 0.129478 1.000000
0.671797 0.129478 1.000000
0.837548 0.129478 1.000000
0.963908 0.129478 1.000000
1.000000 0.129478 1.000000
1.000000 0.129478 1.000000
0.000000 0.288227 1.000000
0.129478 0.288227 1.000000
0.288227 0.288227 1.000000
0.478574 0.288227 1.000000
0.671797 0.288227 1.000000
0.837548 0.288227 1.000000
0.963908 0.288227 1.000000
1.000000 0.288227 1.000000
1.000000 0.288227 1.000000
0.000000 0.478574 1.000000
0.129478 0.478574 1.000000
0.288227 0.478574 1.000000
0.478574 0.478574 1.000000
0.671797 0.478574 1.000000
0.837548 0.478574 1.000000
0.963908 0.478574 1.000000
1.000000 0.478574 1.000000
1.000000 0.478574 1.000000
0.000000 0.671797 1.000000
0.129478 0.671797 1.000000
0.288227 0.671797 1.000000
0.478574 0.671797 1.000000
0.671797 0.671797 1.000000
0.837547 0.671797 1.000000
0.963908 0.671797 1.000000
1.000000 0.671797 1.000000
1.000000 0.671797 1.000000
0.000000 0.837548 1.000000
0.129478 0.837548 1.000000
0.288227 0.837548 1.000000
0.478574 0.837548 1.000000
0.671797 0.837548 1.000000
0.837548 0.837548 1.000000
0.963908 0.837548 1.000000
1.000000 0.837548 1.000000
1.000000 0.837548 1.000000
0.000000 0.963908 1.000000
0.129478 0.963908 1.000000
0.288227 0.963908 1.000000
0.478574 0.963908 1.000000
0.671797 0.963908 1.000000
0.837548 0.963908 1.000000
0.963908 0.963908 1.000000
1.000000 0.963908 1.000000
1.000000 0.963908 1.000000
0.000000 1.000000 1.000000
0.129478 1.000000 1.000000
0.288227 1.000000 1.000000
0.478574 1.000000 1.000000
0.671797 1.000000 1.000000
0.837548 1.000000 1.000000
0.963908 1.000000 1.000000
1.000000 1.000000 1.000000
1.000000 1.000000 1.000000
0.000000 1.000000 1.000000
0.129478 1.000000 1.000000
0.288227 1.000000 1.000000
0.478574 1.000000 1.000000
0.671797 1.000000 1.000000
0.837548 1.000000 1.000000
0.963908 1.000000 1.000000
1.000000 1.000000 1.000000
1.000000 1.000000 1.000000
0.000000 0.000000 1.000000
0.129478 0.000000 1.000000
0.288227 0.000000 1.000000
0.478574 0.000000 1.000000
0.671797 0.000000 1.000000
0.837548 0.000000 1.000000
0.963908 0.000000 1.000000
1.000000 0.000000 1.000000
1.000000 0.000000 1.000000
0.000000 0.129478 1.000000
0.129478 0.129478 1.000000
0.288228 0.129478 1.000000
0.478574 0.129478 1.000000
0.671797 0.129478 1.000000
0.837548 0.129478 1.000000
0.963908 0.129478 1.000000
1.000000 0.129478 1.000000
1.000000 0.129478 1.000000
0.000000 0.288227 1.000000
0.129478 0.288227 1.000000
0.288227 0.288227 1.000000
0.478574 0.288227 1.000000
0.671797 0.288227 1.000000
0.837548 0.288227 1.000000
0.963908 0.288227 1.000000
1.000000 0.288227 1.000000
1.000000 0.288227 1.000000
0.000000 0.478574 1.000000
0.129478 0.478574 1.000000
0.288227 0.478574 1.000000
0.478574 0.478574 1.000000
0.671797 0.478574 1.000000
0.837548 0.478574 1.000000
0.963908 0.478574 1.000000
1.000000 0.478574 1.000000
1.000000 0.478574 1.000000
0.000000 0.671797 1.000000
0.129478 0.671797 1.000000
0.288227 0.671797 1.000000
0.478574 0.671797 1.000000
0.671797 0.671797 1.000000
0.837547 0.671797 1.000000
0.963908 0.671797 1.000000
1.000000 0.671797 1.000000
1.000000 0.671797 1.000000
0.000000 0.837548 1.000000
0.129478 0.837548 1.000000
0.288227 0.837548 1.000000
0.478574 0.837548 1.000000
0.671797 0.837548 1.000000
0.837548 0.837548 1.000000
0.963908 0.837548 1.000000
1.000000 0.837548 1.000000
1.000000 0.837548 1.000000
0.000000 0.963908 1.000000
0.129478 0.963908 1.000000
0.288227 0.963908 1.000000
0.478574 0.963908 1.000000
0.671797 0.963908 1.000000
0.837548 0.963908 1.000000
0.963908 0.963908 1.000000
1.000000 0.963908 1.000000
1.000000 0.963908 1.000000
0.000000 1.000000 1.000000
0.129478 1.000000 1.000000
0.288227 1.000000 1.000000
0.478574 1.000000 1.000000
0.671797 1.000000 1.000000
0.837548 1.000000 1.000000
0.963908 1.000000 1.000000
1.000000 1.000000 1.000000
1.000000 1.000000 1.000000
0.000000 1.000000 1.000000
0.129478 1.000000 1.000000
0.288227 1.000000 1.000000
0.478574 1.000000 1.000000
0.671797 1.000000 1.000000
0.837548 1.000000 1.000000
0.963908 1.000000 1.000000
1.000000 1.000000 1.000000
1.000000 1.000000 1.000000
