deploy/96b8a8c1d0765bdd682b.CUBE
#Created by: Affinity Photo (Serif Europe Ltd.)
TITLE "Exportierte LUT"
#LUT size
LUT_3D_SIZE 17
#data domain
DOMAIN_MIN 0.0 0.0 0.0
DOMAIN_MAX 1.0 1.0 1.0
#LUT data points
0.000000 0.000000 0.000000
0.062853 0.000000 0.000000
0.129478 0.000000 0.000000
0.203644 0.000000 0.000000
0.288227 0.000000 0.000000
0.381139 0.000000 0.000000
0.478574 0.000000 0.000000
0.576728 0.000000 0.000000
0.671797 0.000000 0.000000
0.759974 0.000000 0.000000
0.837548 0.000000 0.000000
0.904200 0.000000 0.000000
0.963908 0.000000 0.000000
1.000000 0.000000 0.000000
1.000000 0.000000 0.000000
1.000000 0.000000 0.000000
1.000000 0.000000 0.000000
0.000000 0.062853 0.000000
0.062853 0.062853 0.000000
0.129478 0.062853 0.000000
0.203644 0.062853 0.000000
0.288227 0.062853 0.000000
0.381139 0.062853 0.000000
0.478574 0.062853 0.000000
0.576728 0.062853 0.000000
0.671797 0.062853 0.000000
0.759974 0.062853 0.000000
0.837548 0.062853 0.000000
0.904200 0.062853 0.000000
0.963908 0.062853 0.000000
1.000000 0.062853 0.000000
1.000000 0.062853 0.000000
1.000000 0.062853 0.000000
1.000000 0.062853 0.000000
0.000000 0.129478 0.000000
0.062853 0.129478 0.000000
0.129478 0.129478 0.000000
0.203644 0.129478 0.000000
0.288227 0.129478 0.000000
0.381139 0.129478 0.000000
0.478574 0.129478 0.000000
0.576728 0.129478 0.000000
0.671797 0.129478 0.000000
0.759974 0.129478 0.000000
0.837548 0.129478 0.000000
0.904200 0.129478 0.000000
0.963908 0.129478 0.000000
1.000000 0.129478 0.000000
1.000000 0.129478 0.000000
1.000000 0.129478 0.000000
1.000000 0.129478 0.000000
0.000000 0.203644 0.000000
0.062853 0.203644 0.000000
0.129478 0.203644 0.000000
0.203644 0.203644 0.000000
0.288227 0.203644 0.000000
0.381139 0.203644 0.000000
0.478574 0.203644 0.000000
0.576728 0.203644 0.000000
0.671797 0.203644 0.000000
0.759974 0.203644 0.000000
0.837548 0.203644 0.000000
0.904200 0.203644 0.000000
0.963908 0.203644 0.000000
1.000000 0.203644 0.000000
1.000000 0.203644 0.000000
1.000000 0.203644 0.000000
1.000000 0.203644 0.000000
0.000000 0.288227 0.000000
0.062853 0.288227 0.000000
0.129478 0.288227 0.000000
0.203644 0.288227 0.000000
0.288227 0.288227 0.000000
0.381139 0.288227 0.000000
0.478574 0.288227 0.000000
0.576728 0.288227 0.000000
0.671797 0.288227 0.000000
0.759974 0.288227 0.000000
0.837548 0.288227 0.000000
0.904200 0.288227 0.000000
0.963908 0.288227 0.000000
1.000000 0.288227 0.000000
1.000000 0.288227 0.000000
1.000000 0.288227 0.000000
1.000000 0.288227 0.000000
0.000000 0.381139 0.000000
0.062853 0.381139 0.000000
0.129478 0.381139 0.000000
0.203644 0.381139 0.000000
0.288227 0.381139 0.000000
0.381139 0.381139 0.000000
0.478574 0.381139 0.000000
0.576728 0.381139 0.000000
0.671797 0.381139 0.000000
0.759974 0.381139 0.000000
0.837548 0.381139 0.000000
0.904200 0.381139 0.000000
0.963908 0.381139 0.000000
1.000000 0.381139 0.000000
1.000000 0.381139 0.000000
1.000000 0.381139 0.000000
1.000000 0.381139 0.000000
0.000000 0.478574 0.000000
0.062853 0.478574 0.000000
0.129478 0.478574 0.000000
0.203644 0.478574 0.000000
0.288227 0.478574 0.000000
0.381139 0.478574 0.000000
0.478574 0.478574 0.000000
0.576728 0.478574 0.000000
0.671797 0.478574 0.000000
0.759974 0.478574 0.000000
0.837548 0.478574 0.000000
0.904200 0.478574 0.000000
0.963908 0.478574 0.000000
1.000000 0.478574 0.000000
1.000000 0.478574 0.000000
1.000000 0.478574 0.000000
1.000000 0.478574 0.000000
0.000000 0.576728 0.000000
0.062853 0.576728 0.000000
0.129478 0.576728 0.000000
0.203644 0.576728 0.000000
0.288227 0.576728 0.000000
0.381139 0.576728 0.000000
0.478574 0.576728 0.000000
0.576728 0.576728 0.000000
0.671797 0.576728 0.000000
0.759974 0.576728 0.000000
0.837548 0.576728 0.000000
0.904200 0.576728 0.000000
0.963908 0.576728 0.000000
1.000000 0.576728 0.000000
1.000000 0.576728 0.000000
1.000000 0.576728 0.000000
1.000000 0.576728 0.000000
0.000000 0.671797 0.000000
0.062853 0.671797 0.000000
0.129478 0.671797 0.000000
0.203644 0.671797 0.000000
0.288227 0.671797 0.000000
0.381139 0.671797 0.000000
0.478574 0.671797 0.000000
0.576728 0.671797 0.000000
0.671797 0.671797 0.000000
0.759974 0.671797 0.000000
0.837548 0.671797 0.000000
0.904200 0.671797 0.000000
0.963908 0.671797 0.000000
1.000000 0.671797 0.000000
1.000000 0.671797 0.000000
1.000000 0.671797 0.000000
1.000000 0.671797 0.000000
0.000000 0.759974 0.000000
0.062853 0.759974 0.000000
0.129478 0.759974 0.000000
0.203643 0.759974 0.000000
0.288227 0.759974 0.000000
0.381139 0.759974 0.000000
0.478574 0.759974 0.000000
0.576728 0.759974 0.000000
0.671797 0.759974 0.000000
0.759974 0.759974 0.000000
0.837548 0.759974 0.000000
0.904200 0.759974 0.000000
0.963908 0.759974 0.000000
1.000000 0.759974 0.000000
1.000000 0.759974 0.000000
1.000000 0.759974 0.000000
1.000000 0.759974 0.000000
0.000000 0.837548 0.000000
0.062854 0.837548 0.000000
0.129478 0.837548 0.000000
0.203644 0.837548 0.000000
0.288227 0.837548 0.000000
0.381139 0.837548 0.000000
0.478574 0.837548 0.000000
0.576728 0.837548 0.000000
0.671797 0.837548 0.000000
0.759974 0.837548 0.000000
0.837548 0.837548 0.000000
0.904200 0.837548 0.000000
0.963908 0.837548 0.000000
1.000000 0.837548 0.000000
1.000000 0.837548 0.000000
1.000000 0.837548 0.000000
1.000000 0.837548 0.000000
0.000000 0.904200 0.000000
0.062854 0.904200 0.000000
0.129478 0.904200 0.000000
0.203644 0.904200 0.000000
0.288227 0.904200 0.000000
0.381139 0.904200 0.000000
0.478574 0.904200 0.000000
0.576728 0.904200 0.000000
0.671797 0.904200 0.000000
0.759974 0.904200 0.000000
0.837548 0.904200 0.000000
0.904200 0.904200 0.000000
0.963908 0.904200 0.000000
1.000000 0.904200 0.000000
1.000000 0.904200 0.000000
1.000000 0.904200 0.000000
1.000000 0.904200 0.000000
0.000000 0.963908 0.000000
0.062853 0.963908 0.000000
0.129478 0.963908 0.000000
0.203644 0.963908 0.000000
0.288227 0.963908 0.000000
0.381139 0.963908 0.000000
0.478574 0.963908 0.000000
0.576728 0.963908 0.000000
0.671797 0.963908 0.000000
0.759974 0.963908 0.000000
0.837548 0.963908 0.000000
0.904200 0.963908 0.000000
0.963908 0.963908 0.000000
1.000000 0.963908 0.000000
1.000000 0.963908 0.000000
1.000000 0.963908 0.000000
1.000000 0.963908 0.000000
0.000000 1.000000 0.000000
0.062853 1.000000 0.000000
0.129478 1.000000 0.000000
0.203644 1.000000 0.000000
0.288227 1.000000 0.000000
0.381139 1.000000 0.000000
0.478574 1.000000 0.000000
0.576729 1.000000 0.000000
0.671797 1.000000 0.000000
0.759974 1.000000 0.000000
0.837548 1.000000 0.000000
0.904200 1.000000 0.000000
0.963908 1.000000 0.000000
1.000000 1.000000 0.000000
1.000000 1.000000 0.000000
1.000000 1.000000 0.000000
1.000000 1.000000 0.000000
0.000000 1.000000 0.000000
0.062853 1.000000 0.000000
0.129478 1.000000 0.000000
0.203644 1.000000 0.000000
0.288227 1.000000 0.000000
0.381139 1.000000 0.000000
0.478574 1.000000 0.000000
0.576729 1.000000 0.000000
0.671797 1.000000 0.000000
0.759974 1.000000 0.000000
0.837548 1.000000 0.000000
0.904200 1.000000 0.000000
0.963908 1.000000 0.000000
1.000000 1.000000 0.000000
1.000000 1.000000 0.000000
1.000000 1.000000 0.000000
1.000000 1.000000 0.000000
0.000000 1.000000 0.000000
0.062853 1.000000 0.000000
0.129478 1.000000 0.000000
0.203644 1.000000 0.000000
0.288227 1.000000 0.000000
0.381139 1.000000 0.000000
0.478574 1.000000 0.000000
0.576729 1.000000 0.000000
0.671797 1.000000 0.000000
0.759974 1.000000 0.000000
0.837548 1.000000 0.000000
0.904200 1.000000 0.000000
0.963908 1.000000 0.000000
1.000000 1.000000 0.000000
1.000000 1.000000 0.000000
1.000000 1.000000 0.000000
1.000000 1.000000 0.000000
0.000000 1.000000 0.000000
0.062853 1.000000 0.000000
0.129478 1.000000 0.000000
0.203644 1.000000 0.000000
0.288227 1.000000 0.000000
0.381139 1.000000 0.000000
0.478574 1.000000 0.000000
0.576729 1.000000 0.000000
0.671797 1.000000 0.000000
0.759974 1.000000 0.000000
0.837548 1.000000 0.000000
0.904200 1.000000 0.000000
0.963908 1.000000 0.000000
1.000000 1.000000 0.000000
1.000000 1.000000 0.000000
1.000000 1.000000 0.000000
1.000000 1.000000 0.000000
0.000000 0.000000 0.062853
0.062853 0.000000 0.062853
0.129478 0.000000 0.062853
0.203644 0.000000 0.062853
0.288227 0.000000 0.062853
0.381139 0.000000 0.062853
0.478574 0.000000 0.062854
0.576728 0.000000 0.062854
0.671797 0.000000 0.062853
0.759974 0.000000 0.062853
0.837548 0.000000 0.062854
0.904200 0.000000 0.062854
0.963908 0.000000 0.062853
1.000000 0.000000 0.062853
1.000000 0.000000 0.062853
1.000000 0.000000 0.062853
1.000000 0.000000 0.062853
0.000000 0.062853 0.062853
0.062853 0.062853 0.062853
0.149632 0.044764 0.044764
0.250496 0.026893 0.026893
0.367098 0.009154 0.009154
0.478574 0.000000 0.000000
0.576728 0.000000 0.000000
0.671797 0.000000 0.000000
0.759974 0.000000 0.000000
0.837548 0.000000 0.000000
0.904200 0.000000 0.000000
0.963908 0.000000 0.000000
1.000000 0.022917 0.022917
1.000000 0.062853 0.062854
1.000000 0.062853 0.062854
1.000000 0.062853 0.062854
1.000000 0.062853 0.062854
0.000000 0.129478 0.062853
0.044764 0.149632 0.044764
0.149632 0.149632 0.044764
0.250496 0.129478 0.026893
0.367098 0.109933 0.009154
0.478574 0.095458 0.000000
0.576728 0.088839 0.000000
0.671797 0.084456 0.000000
0.759974 0.081339 0.000000
0.837548 0.079009 0.000000
0.904200 0.077200 0.000000
0.963908 0.075756 0.000000
1.000000 0.094312 0.022917
1.000000 0.129478 0.062853
1.000000 0.129478 0.062853
1.000000 0.129478 0.062853
1.000000 0.129478 0.062853
0.000000 0.203644 0.062853
0.026893 0.250496 0.026893
0.129478 0.250496 0.026893
0.250496 0.250496 0.026893
0.367098 0.226624 0.009154
0.478574 0.203644 0.000000
0.576728 0.188026 0.000000
0.671797 0.177851 0.000000
0.759974 0.170693 0.000000
0.837548 0.165382 0.000000
0.904200 0.161285 0.000000
0.963908 0.158028 0.000000
1.000000 0.172657 0.022917
1.000000 0.203644 0.062853
1.000000 0.203644 0.062853
1.000000 0.203644 0.062853
1.000000 0.203644 0.062853
0.000000 0.288227 0.062853
0.009154 0.367098 0.009154
0.109933 0.367098 0.009154
0.226624 0.367098 0.009154
0.367098 0.367098 0.009154
0.478574 0.333880 0.000000
0.576728 0.306265 0.000000
0.671797 0.288227 0.000000
0.759974 0.275546 0.000000
0.837548 0.266152 0.000000
0.904200 0.258920 0.000000
0.963908 0.253182 0.000000
1.000000 0.262901 0.022917
1.000000 0.288227 0.062853
1.000000 0.288227 0.062853
1.000000 0.288227 0.062853
1.000000 0.288227 0.062853
0.000000 0.381139 0.062853
0.000000 0.478574 0.000000
0.095458 0.478574 0.000000
0.203644 0.478574 0.000000
0.333880 0.478574 0.000000
0.478574 0.478574 0.000000
0.576728 0.439300 0.000000
0.671797 0.413302 0.000000
0.759974 0.394870 0.000000
0.837548 0.381139 0.000000
0.904200 0.370522 0.000000
0.963908 0.362073 0.000000
1.000000 0.364690 0.022917
1.000000 0.381139 0.062853
1.000000 0.381139 0.062853
1.000000 0.381139 0.062853
1.000000 0.381139 0.062853
0.000000 0.478574 0.062853
0.000000 0.576728 0.000000
0.088839 0.576728 0.000000
0.188026 0.576728 0.000000
0.306265 0.576728 0.000000
0.439300 0.576728 0.000000
0.576728 0.576728 0.000000
0.671797 0.544165 0.000000
0.759974 0.520774 0.000000
0.837548 0.503194 0.000000
0.904200 0.489514 0.000000
0.963908 0.478574 0.000000
1.000000 0.472918 0.022917
1.000000 0.478574 0.062853
1.000000 0.478574 0.062853
1.000000 0.478574 0.062853
1.000000 0.478574 0.062853
0.000000 0.576728 0.062853
0.000000 0.671797 0.000000
0.084456 0.671797 0.000000
0.177851 0.671797 0.000000
0.288227 0.671797 0.000000
0.413303 0.671797 0.000000
0.544165 0.671797 0.000000
0.671797 0.671797 0.000000
0.759974 0.645171 0.000000
0.837548 0.624886 0.000000
0.904200 0.608949 0.000000
0.963908 0.596111 0.000000
1.000000 0.582312 0.022917
1.000000 0.576728 0.062853
1.000000 0.576728 0.062853
1.000000 0.576728 0.062853
1.000000 0.576728 0.062853
0.000000 0.671797 0.062853
0.000000 0.759974 0.000000
0.081339 0.759974 0.000000
0.170693 0.759974 0.000000
0.275546 0.759974 0.000000
0.394870 0.759974 0.000000
0.520774 0.759974 0.000000
0.645171 0.759974 0.000000
0.759974 0.759974 0.000000
0.837548 0.738784 0.000000
0.904200 0.721878 0.000000
0.963908 0.708108 0.000000
1.000000 0.687598 0.022917
1.000000 0.671797 0.062853
1.000000 0.671797 0.062853
1.000000 0.671797 0.062853
1.000000 0.671797 0.062853
0.000000 0.759974 0.062853
0.000000 0.837548 0.000000
0.079009 0.837548 0.000000
0.165382 0.837548 0.000000
0.266152 0.837548 0.000000
0.381139 0.837548 0.000000
0.503194 0.837548 0.000000
0.624886 0.837548 0.000000
0.738784 0.837548 0.000000
0.837548 0.837548 0.000000
0.904200 0.821365 0.000000
0.963908 0.807990 0.000000
1.000000 0.783502 0.022917
1.000000 0.759974 0.062853
1.000000 0.759974 0.062853
1.000000 0.759974 0.062853
1.000000 0.759974 0.062853
0.000000 0.837548 0.062853
0.000000 0.904200 0.000000
0.077200 0.904200 0.000000
0.161285 0.904200 0.000000
0.258920 0.904200 0.000000
0.370522 0.904200 0.000000
0.489514 0.904200 0.000000
0.608949 0.904200 0.000000
0.721878 0.904200 0.000000
0.821365 0.904200 0.000000
0.904200 0.904200 0.000000
0.963908 0.891561 0.000000
1.000000 0.865470 0.022917
1.000000 0.837548 0.062853
1.000000 0.837548 0.062853
1.000000 0.837548 0.062853
1.000000 0.837548 0.062853
0.000000 0.904200 0.062853
0.000000 0.963908 0.000000
0.075756 0.963908 0.000000
0.158028 0.963908 0.000000
0.253182 0.963908 0.000000
0.362073 0.963908 0.000000
0.478574 0.963908 0.000000
0.596110 0.963908 0.000000
0.708108 0.963908 0.000000
0.807990 0.963908 0.000000
0.891561 0.963908 0.000000
0.963908 0.963908 0.000000
1.000000 0.935683 0.022917
1.000000 0.904200 0.062853
1.000000 0.904200 0.062853
1.000000 0.904200 0.062853
1.000000 0.904200 0.062853
0.000000 0.963908 0.062853
0.022917 1.000000 0.022917
0.094312 1.000000 0.022917
0.172657 1.000000 0.022917
0.262901 1.000000 0.022917
0.364690 1.000000 0.022917
0.472918 1.000000 0.022917
0.582312 1.000000 0.022917
0.687598 1.000000 0.022917
0.783502 1.000000 0.022917
0.865470 1.000000 0.022917
0.935683 1.000000 0.022917
1.000000 1.000000 0.022917
1.000000 0.963908 0.062853
1.000000 0.963908 0.062853
1.000000 0.963908 0.062853
1.000000 0.963908 0.062853
0.000000 1.000000 0.062853
0.062853 1.000000 0.062853
0.129478 1.000000 0.062853
0.203644 1.000000 0.062853
0.288227 1.000000 0.062853
0.381139 1.000000 0.062853
0.478574 1.000000 0.062853
0.576729 1.000000 0.062853
0.671797 1.000000 0.062853
0.759974 1.000000 0.062853
0.837548 1.000000 0.062853
0.904200 1.000000 0.062853
0.963908 1.000000 0.062853
1.000000 1.000000 0.062853
1.000000 1.000000 0.062853
1.000000 1.000000 0.062853
1.000000 1.000000 0.062853
0.000000 1.000000 0.062853
0.062853 1.000000 0.062853
0.129478 1.000000 0.062853
0.203644 1.000000 0.062853
0.288227 1.000000 0.062853
0.381139 1.000000 0.062853
0.478574 1.000000 0.062853
0.576729 1.000000 0.062853
0.671797 1.000000 0.062853
0.759974 1.000000 0.062853
0.837548 1.000000 0.062853
0.904200 1.000000 0.062853
0.963908 1.000000 0.062853
1.000000 1.000000 0.062853
1.000000 1.000000 0.062853
1.000000 1.000000 0.062853
1.000000 1.000000 0.062853
0.000000 1.000000 0.062853
0.062853 1.000000 0.062853
0.129478 1.000000 0.062853
0.203644 1.000000 0.062853
0.288227 1.000000 0.062853
0.381139 1.000000 0.062853
0.478574 1.000000 0.062853
0.576729 1.000000 0.062853
0.671797 1.000000 0.062853
0.759974 1.000000 0.062853
0.837548 1.000000 0.062853
0.904200 1.000000 0.062853
0.963908 1.000000 0.062853
1.000000 1.000000 0.062853
1.000000 1.000000 0.062853
1.000000 1.000000 0.062853
1.000000 1.000000 0.062853
0.000000 1.000000 0.062853
0.062853 1.000000 0.062853
0.129478 1.000000 0.062853
0.203644 1.000000 0.062853
0.288227 1.000000 0.062853
0.381139 1.000000 0.062853
0.478574 1.000000 0.062853
0.576729 1.000000 0.062853
0.671797 1.000000 0.062853
0.759974 1.000000 0.062853
0.837548 1.000000 0.062853
0.904200 1.000000 0.062853
0.963908 1.000000 0.062853
1.000000 1.000000 0.062853
1.000000 1.000000 0.062853
1.000000 1.000000 0.062853
1.000000 1.000000 0.062853
0.000000 0.000000 0.129478
0.062853 0.000000 0.129478
0.129478 0.000000 0.129478
0.203644 0.000000 0.129478
0.288227 0.000000 0.129478
0.381139 0.000000 0.129478
0.478574 0.000000 0.129478
0.576728 0.000000 0.129478
0.671797 0.000000 0.129478
0.759974 0.000000 0.129478
0.837548 0.000000 0.129478
0.904200 0.000000 0.129478
0.963908 0.000000 0.129478
1.000000 0.000000 0.129477
1.000000 0.000000 0.129477
1.000000 0.000000 0.129477
1.000000 0.000000 0.129477
0.000000 0.062853 0.129478
0.044764 0.044764 0.149632
0.149632 0.044764 0.149632
0.250496 0.026893 0.129478
0.367098 0.009154 0.109933
0.478574 0.000000 0.095458
0.576728 0.000000 0.088839
0.671797 0.000000 0.084456
0.759974 0.000000 0.081339
0.837548 0.000000 0.079009
0.904200 0.000000 0.077200
0.963908 0.000000 0.075756
1.000000 0.022917 0.094312
1.000000 0.062853 0.129478
1.000000 0.062853 0.129478
1.000000 0.062853 0.129478
1.000000 0.062853 0.129478
0.000000 0.129478 0.129478
0.044764 0.149632 0.149632
0.129478 0.129478 0.129478
0.226624 0.109933 0.109933
0.340281 0.090911 0.090911
0.464107 0.072325 0.072325
0.590043 0.054089 0.054090
0.710027 0.036116 0.036117
0.816001 0.018320 0.018320
0.903584 0.000613 0.000613
0.963908 0.000000 0.000000
1.000000 0.022917 0.022917
1.000000 0.086719 0.086719
1.000000 0.129478 0.129478
1.000000 0.129478 0.129478
1.000000 0.129478 0.129478
1.000000 0.129478 0.129478
0.000000 0.203644 0.129478
0.026893 0.250496 0.129478
0.109933 0.226624 0.109933
0.226624 0.226624 0.109933
0.340281 0.203644 0.090911
0.464107 0.181571 0.072325
0.590043 0.160326 0.054089
0.710027 0.139822 0.036116
0.816001 0.119973 0.018320
0.903584 0.100691 0.000613
0.963908 0.095458 0.000000
1.000000 0.110937 0.022917
1.000000 0.164955 0.086719
1.000000 0.203644 0.129478
1.000000 0.203644 0.129478
1.000000 0.203644 0.129478
1.000000 0.203644 0.129478
0.000000 0.288227 0.129478
0.009154 0.367098 0.109933
0.090911 0.340281 0.090911
0.203644 0.340281 0.090911
0.340281 0.340281 0.090911
0.464107 0.313961 0.072325
0.590043 0.288227 0.054089
0.710027 0.263167 0.036116
0.816001 0.238867 0.018320
0.903584 0.215415 0.000613
0.963908 0.203644 0.000000
1.000000 0.211075 0.022917
1.000000 0.254957 0.086719
1.000000 0.288227 0.129478
1.000000 0.288227 0.129478
1.000000 0.288227 0.129478
1.000000 0.288227 0.129478
0.000000 0.381139 0.129478
0.000000 0.478574 0.095458
0.072325 0.464107 0.072325
0.181571 0.464107 0.072325
0.313961 0.464107 0.072325
0.464107 0.464107 0.072325
0.590043 0.436231 0.054089
0.710027 0.408546 0.036116
0.816001 0.381139 0.018320
0.903584 0.354097 0.000613
0.963908 0.333880 0.000000
1.000000 0.329784 0.022917
1.000000 0.357065 0.086719
1.000000 0.381139 0.129478
1.000000 0.381139 0.129478
1.000000 0.381139 0.129478
1.000000 0.381139 0.129478
0.000000 0.478574 0.129478
0.000000 0.576728 0.088839
0.054089 0.590043 0.054089
0.160326 0.590043 0.054089
0.288227 0.590043 0.054089
0.436231 0.590043 0.054089
0.590043 0.590043 0.054089
0.710027 0.562394 0.036116
0.816001 0.534542 0.018320
0.903584 0.506573 0.000613
0.963908 0.478574 0.000000
1.000000 0.460739 0.022917
1.000000 0.466135 0.086719
1.000000 0.478574 0.129478
1.000000 0.478574 0.129478
1.000000 0.478574 0.129478
1.000000 0.478574 0.129478
0.000000 0.576728 0.129478
0.000000 0.671797 0.084456
0.036116 0.710027 0.036116
0.139822 0.710027 0.036116
0.263167 0.710027 0.036116
0.408546 0.710027 0.036116
0.562395 0.710027 0.036116
0.710027 0.710027 0.036116
0.816001 0.684391 0.018320
0.903584 0.658155 0.000613
0.963908 0.624886 0.000000
1.000000 0.594310 0.022917
1.000000 0.576728 0.086719
1.000000 0.576728 0.129478
1.000000 0.576728 0.129478
1.000000 0.576728 0.129478
1.000000 0.576728 0.129478
0.000000 0.671797 0.129478
0.000000 0.759974 0.081339
0.018320 0.816001 0.018320
0.119973 0.816001 0.018320
0.238867 0.816001 0.018320
0.381139 0.816001 0.018320
0.534542 0.816001 0.018320
0.684391 0.816001 0.018320
0.816001 0.816001 0.018320
0.903584 0.794159 0.000613
0.963908 0.759974 0.000000
1.000000 0.720869 0.022917
1.000000 0.683406 0.086719
1.000000 0.671797 0.129478
1.000000 0.671797 0.129478
1.000000 0.671797 0.129478
1.000000 0.671797 0.129478
0.000000 0.759974 0.129478
0.000000 0.837548 0.079009
0.000613 0.903584 0.000613
0.100691 0.903584 0.000613
0.215415 0.903584 0.000613
0.354097 0.903584 0.000613
0.506573 0.903584 0.000613
0.658155 0.903584 0.000613
0.794159 0.903584 0.000613
0.903584 0.903584 0.000613
0.963908 0.872008 0.000000
1.000000 0.830830 0.022917
1.000000 0.780728 0.086719
1.000000 0.759974 0.129478
1.000000 0.759974 0.129478
1.000000 0.759974 0.129478
1.000000 0.759974 0.129478
0.000000 0.837548 0.129478
0.000000 0.904200 0.077200
0.000000 0.963908 0.000000
0.095458 0.963908 0.000000
0.203644 0.963908 0.000000
0.333880 0.963908 0.000000
0.478574 0.963908 0.000000
0.624886 0.963908 0.000000
0.759974 0.963908 0.000000
0.872007 0.963908 0.000000
0.963908 0.963908 0.000000
1.000000 0.920797 0.022917
1.000000 0.863919 0.086719
1.000000 0.837548 0.129478
1.000000 0.837548 0.129478
1.000000 0.837548 0.129478
1.000000 0.837548 0.129478
0.000000 0.904200 0.129477
0.000000 0.963908 0.075756
0.022917 1.000000 0.022917
0.110937 1.000000 0.022917
0.211076 1.000000 0.022917
0.329784 1.000000 0.022917
0.460739 1.000000 0.022917
0.594310 1.000000 0.022917
0.720869 1.000000 0.022917
0.830830 1.000000 0.022917
0.920797 1.000000 0.022917
1.000000 1.000000 0.022917
1.000000 0.935000 0.086719
1.000000 0.904200 0.129478
1.000000 0.904200 0.129478
1.000000 0.904200 0.129478
1.000000 0.904200 0.129478
0.000000 0.963908 0.129478
0.022917 1.000000 0.094312
0.086719 1.000000 0.086719
0.164956 1.000000 0.086719
0.254957 1.000000 0.086719
0.357065 1.000000 0.086719
0.466135 1.000000 0.086719
0.576728 1.000000 0.086719
0.683405 1.000000 0.086719
0.780728 1.000000 0.086719
0.863919 1.000000 0.086719
0.935000 1.000000 0.086719
1.000000 1.000000 0.086719
1.000000 0.963908 0.129478
1.000000 0.963908 0.129478
1.000000 0.963908 0.129478
1.000000 0.963908 0.129478
0.000000 1.000000 0.129478
0.062853 1.000000 0.129478
0.129478 1.000000 0.129478
0.203643 1.000000 0.129478
0.288227 1.000000 0.129478
0.381139 1.000000 0.129478
0.478574 1.000000 0.129478
0.576728 1.000000 0.129478
0.671797 1.000000 0.129478
0.759974 1.000000 0.129478
0.837548 1.000000 0.129478
0.904200 1.000000 0.129478
0.963908 1.000000 0.129478
1.000000 1.000000 0.129478
1.000000 1.000000 0.129478
1.000000 1.000000 0.129478
1.000000 1.000000 0.129478
0.000000 1.000000 0.129478
0.062853 1.000000 0.129478
0.129478 1.000000 0.129478
0.203643 1.000000 0.129478
0.288227 1.000000 0.129478
0.381139 1.000000 0.129478
0.478574 1.000000 0.129478
0.576728 1.000000 0.129478
0.671797 1.000000 0.129478
0.759974 1.000000 0.129478
0.837548 1.000000 0.129478
0.904200 1.000000 0.129478
0.963908 1.000000 0.129478
1.000000 1.000000 0.129478
1.000000 1.000000 0.129478
1.000000 1.000000 0.129478
1.000000 1.000000 0.129478
0.000000 1.000000 0.129478
0.062853 1.000000 0.129478
0.129478 1.000000 0.129478
0.203643 1.000000 0.129478
0.288227 1.000000 0.129478
0.381139 1.000000 0.129478
0.478574 1.000000 0.129478
0.576728 1.000000 0.129478
0.671797 1.000000 0.129478
0.759974 1.000000 0.129478
0.837548 1.000000 0.129478
0.904200 1.000000 0.129478
0.963908 1.000000 0.129478
1.000000 1.000000 0.129478
1.000000 1.000000 0.129478
1.000000 1.000000 0.129478
1.000000 1.000000 0.129478
0.000000 1.000000 0.129478
0.062853 1.000000 0.129478
0.129478 1.000000 0.129478
0.203643 1.000000 0.129478
0.288227 1.000000 0.129478
0.381139 1.000000 0.129478
0.478574 1.000000 0.129478
0.576728 1.000000 0.129478
0.671797 1.000000 0.129478
0.759974 1.000000 0.129478
0.837548 1.000000 0.129478
0.904200 1.000000 0.129478
0.963908 1.000000 0.129478
1.000000 1.000000 0.129478
1.000000 1.000000 0.129478
1.000000 1.000000 0.129478
1.000000 1.000000 0.129478
0.000000 0.000000 0.203644
0.062853 0.000000 0.203644
0.129478 0.000000 0.203644
0.203644 0.000000 0.203644
0.288227 0.000000 0.203644
0.381139 0.000000 0.203644
0.478574 0.000000 0.203644
0.576728 0.000000 0.203644
0.671797 0.000000 0.203644
0.759974 0.000000 0.203644
0.837548 0.000000 0.203644
0.904200 0.000000 0.203644
0.963908 0.000000 0.203644
1.000000 0.000000 0.203644
1.000000 0.000000 0.203644
