deploy/96b8a8c1d0765bdd682b.CUBE
#Created by: Affinity Photo (Serif Europe Ltd.)
TITLE "Exportierte LUT"
#LUT size
LUT_3D_SIZE 5
#data domain
DOMAIN_MIN 0.0 0.0 0.0
DOMAIN_MAX 1.0 1.0 1.0
#LUT data points
0.000000 0.000000 0.000000
0.288227 0.000000 0.000000
0.671797 0.000000 0.000000
0.963908 0.000000 0.000000
1.000000 0.000000 0.000000
0.000000 0.288227 0.000000
0.288227 0.288227 0.000000
0.671797 0.288227 0.000000
0.963908 0.288227 0.000000
1.000000 0.288227 0.000000
0.000000 0.671797 0.000000
0.288227 0.671797 0.000000
0.671797 0.671797 0.000000
0.963908 0.671797 0.000000
1.000000 0.671797 0.000000
0.000000 0.963908 0.000000
0.288227 0.963908 0.000000
0.671797 0.963908 0.000000
0.963908 0.963908 0.000000
1.000000 0.963908 0.000000
0.000000 1.000000 0.000000
0.288227 1.000000 0.000000
0.671797 1.000000 0.000000
0.963908 1.000000 0.000000
1.000000 1.000000 0.000000
0.000000 0.000000 0.288227
0.288227 0.000000 0.288227
0.671797 0.000000 0.288227
0.963908 0.000000 0.288228
1.000000 0.000000 0.288228
0.000000 0.288227 0.288227
0.288227 0.288227 0.288227
0.771325 0.192881 0.192881
1.000000 0.233544 0.233545
1.000000 0.288227 0.288228
0.000000 0.671797 0.288227
0.192881 0.771325 0.192881
0.771325 0.771325 0.192881
1.000000 0.671797 0.233544
1.000000 0.671797 0.288227
0.000000 0.963908 0.288227
0.233544 1.000000 0.233544
0.671797 1.000000 0.233544
1.000000 1.000000 0.233544
1.000000 0.963908 0.288227
0.000000 1.000000 0.288227
0.288227 1.000000 0.288227
0.671797 1.000000 0.288227
0.963908 1.000000 0.288227
1.000000 1.000000 0.288227
0.000000 0.000000 0.671797
0.288228 0.000000 0.671797
0.671797 0.000000 0.671797
0.963908 0.000000 0.671797
1.000000 0.000000 0.671797
0.000000 0.288228 0.671797
0.192881 0.192881 0.771325
0.771325 0.192881 0.771325
1.000000 0.233544 0.671797
1.000000 0.288227 0.671797
0.000000 0.671797 0.671797
0.192881 0.771325 0.771325
0.671797 0.671797 0.671797
1.000000 0.612254 0.612254
1.000000 0.671797 0.671797
0.000000 0.963908 0.671796
0.233544 1.000000 0.671797
0.612254 1.000000 0.612254
1.000000 1.000000 0.612254
1.000000 0.963908 0.671797
0.000000 1.000000 0.671797
0.288227 1.000000 0.671797
0.671797 1.000000 0.671797
0.963908 1.000000 0.671797
1.000000 1.000000 0.671797
0.000000 0.000000 0.963908
0.288228 0.000000 0.963908
0.671797 0.000000 0.963908
0.963908 0.000000 0.963908
1.000000 0.000000 0.963908
0.000000 0.288228 0.963908
0.233544 0.233544 1.000000
0.671797 0.233544 1.000000
1.000000 0.233544 1.000000
1.000000 0.288227 0.963908
0.000000 0.671797 0.963908
0.233544 0.671797 1.000000
0.612254 0.612254 1.000000
1.000000 0.612254 1.000000
1.000000 0.671797 0.963908
0.000000 0.963908 0.963908
0.233544 1.000000 1.000000
0.612254 1.000000 1.000000
0.963908 0.963908 0.963908
1.000000 0.963908 0.963908
0.000000 1.000000 0.963908
0.288227 1.000000 0.963908
0.671797 1.000000 0.963908
0.963908 1.000000 0.963908
1.000000 1.000000 0.963908
0.000000 0.000000 1.000000
0.288227 0.000000 1.000000
0.671797 0.000000 1.000000
0.963908 0.000000 1.000000
1.000000 0.000000 1.000000
0.000000 0.288227 1.000000
0.288227 0.288227 1.000000
0.671797 0.288227 1.000000
0.963908 0.288227 1.000000
1.000000 0.288227 1.000000
0.000000 0.671797 1.000000
0.288227 0.671797 1.000000
0.671797 0.671797 1.000000
0.963908 0.671797 1.000000
1.000000 0.671797 1.000000
0.000000 0.963908 1.000000
0.288227 0.963908 1.000000
0.671797 0.963908 1.000000
0.963908 0.963908 1.000000
1.000000 0.963908 1.000000
0.000000 1.000000 1.000000
0.288227 1.000000 1.000000
0.671797 1.000000 1.000000
0.963908 1.000000 1.000000
1.000000 1.000000 1.000000
